src/icons/svgs/24/arrow-up.svg

<svg width="24" height="24" viewBox="0 0 24 24" fill="none" xmlns="http://www.w3.org/2000/svg">
<path d="M11.9998 21.5C11.4477 21.5 10.9993 21.0427 10.9993 20.4797L10.9993 6.06515L5.72399 11.7045C5.34246 12.1135 4.70683 12.1281 4.30972 11.739C3.90995 11.3499 3.89561 10.7046 4.27584 10.2966L11.2763 2.8172C11.4623 2.61419 11.7248 2.5 11.9998 2.5C12.2749 2.5 12.5332 2.61419 12.7249 2.81605L19.7254 10.2955C20.1041 10.7016 20.09 11.3475 19.6899 11.7385C19.2941 12.1276 18.6586 12.113 18.2757 11.7039L13.0003 6.06459V20.5178C12.9999 21.0793 12.5499 21.5 11.9998 21.5Z" fill="black"/>
</svg>

<svg width="24" height="24" viewBox="0 0 24 24" xmlns="http://www.w3.org/2000/svg">
    <path d="M12 21.5c-.552 0-1-.457-1-1.02V6.065l-5.276 5.64a.985.985 0 0 1-1.414.034 1.036 1.036 0 0 1-.034-1.442l7-7.48A.98.98 0 0 1 12 2.5c.275 0 .533.114.725.316l7 7.48a1.038 1.038 0 0 1-.035 1.443.985.985 0 0 1-1.414-.035L13 6.064v14.454a.98.98 0 0 1-1 .982z"/>
</svg>
